icons/ionicons/sharp/duplicate-sharp.svg

<svg xmlns="http://www.w3.org/2000/svg" viewBox="0 0 512 512" width="20" height="20"><path d="M112 80h288V56a24 24 0 00-24-24H66a34 34 0 00-34 34v310a24 24 0 0024 24h24V112a32 32 0 0132-32z"/><path d="M456 112H136a24 24 0 00-24 24v320a24 24 0 0024 24h320a24 24 0 0024-24V136a24 24 0 00-24-24zm-64 200h-80v80h-32v-80h-80v-32h80v-80h32v80h80z"/></svg>

<svg xmlns="http://www.w3.org/2000/svg" width="512" height="512" viewBox="0 0 512 512"><title>ionicons-v5-j</title><path d="M112,80H400V56a24,24,0,0,0-24-24H66A34,34,0,0,0,32,66V376a24,24,0,0,0,24,24H80V112A32,32,0,0,1,112,80Z"/><path d="M456,112H136a24,24,0,0,0-24,24V456a24,24,0,0,0,24,24H456a24,24,0,0,0,24-24V136A24,24,0,0,0,456,112ZM392,312H312v80H280V312H200V280h80V200h32v80h80Z"/></svg>
